assets/img/diseno-web.svg

<?xml version="1.0" encoding="UTF-8"?>
<svg width="46px" height="46px" enable-background="new 0 0 512.001 512.001" version="1.1" viewBox="0 0 512 512" xml:space="preserve" xmlns="http://www.w3.org/2000/svg">
	
		<path class="active-path" d="m511.9 435.93v-33.439c0-4.142-3.358-7.5-7.5-7.5s-7.5 3.358-7.5 7.5v26.999h-481.81v-219.49c0-4.142-3.358-7.5-7.5-7.5s-7.5 3.358-7.5 7.5l-0.082 244.99c0 10.752 8.748 19.499 19.499 19.499h472.98c10.752 0 19.499-8.748 19.499-19.499v-17.999c0-0.361-0.034-0.713-0.083-1.06zm-15 19.061c0 2.48-2.018 4.498-4.498 4.498h-472.82c-2.48 0-4.498-2.018-4.498-4.498v-10.502h481.81v10.502z" fill="#1DA1F2" data-old_color="#000000" data-original="#000000"/>
	

	
		<g fill="#1DA1F2">
			<path class="active-path" d="m511.98 57.009c0 0.353 0.047-0.34 0 0z" data-old_color="#000000" data-original="#000000"/>
			<path class="active-path" d="m492.48 37.509h-472.98c-10.751 0-19.499 8.748-19.499 19.5l0.083 120.5c0 4.142 3.358 7.5 7.5 7.5s7.5-3.358 7.5-7.5v-14.999h215.27l-100.13 100.13c-0.081 0.081-0.152 0.169-0.229 0.252-0.057 0.063-0.116 0.124-0.171 0.188-0.197 0.23-0.382 0.469-0.548 0.719-0.014 0.021-0.025 0.043-0.038 0.064-0.152 0.235-0.288 0.478-0.413 0.727-0.039 0.077-0.074 0.155-0.11 0.234-0.104 0.226-0.196 0.457-0.277 0.693-0.02 0.058-0.044 0.115-0.062 0.174-0.092 0.293-0.165 0.591-0.221 0.894-4e-3 0.023-0.013 0.045-0.017 0.068l-13.444 77.061c-9e-3 0.053-0.01 0.106-0.018 0.159-0.014 0.097-0.026 0.194-0.035 0.274-3e-3 0.026-2e-3 0.052-4e-3 0.079-0.026 0.248-0.04 0.496-0.041 0.743 0 0.042 1e-3 0.083 1e-3 0.125 3e-3 0.254 0.018 0.507 0.047 0.758 4e-3 0.034 9e-3 0.068 0.013 0.102 0.033 0.257 0.077 0.51 0.136 0.761 6e-3 0.028 0.014 0.055 0.021 0.082 0.063 0.255 0.138 0.506 0.227 0.753 8e-3 0.022 0.017 0.043 0.025 0.065 0.093 0.25 0.198 0.495 0.317 0.734l0.027 0.051c0.123 0.241 0.257 0.476 0.406 0.704 9e-3 0.013 0.019 0.026 0.028 0.04 0.152 0.229 0.315 0.451 0.493 0.664 8e-3 0.01 0.018 0.02 0.026 0.03 0.135 0.16 0.267 0.321 0.416 0.47 1.419 1.419 3.332 2.197 5.304 2.197 0.428 0 0.858-0.037 1.287-0.111l77.13-13.436c0.308-0.055 0.612-0.131 0.912-0.225 0.052-0.016 0.101-0.036 0.152-0.053 0.251-0.084 0.497-0.183 0.739-0.295 0.06-0.028 0.12-0.054 0.179-0.083 0.543-0.268 1.06-0.605 1.538-1.013 0.068-0.058 0.133-0.12 0.199-0.18 0.083-0.076 0.169-0.145 0.249-0.225l26.366-26.366c2.929-2.929 2.929-7.678 0-10.606-2.929-2.929-7.678-2.929-10.606 0l-21.062 21.062-10.607-10.607 116.67-116.67 10.607 10.607-72.148 72.148c-2.929 2.929-2.929 7.678 0 10.606 2.929 2.929 7.678 2.929 10.606 0l72.458-72.458c0.999 0.477 2.098 0.739 3.226 0.739 1.989 0 3.897-0.79 5.303-2.197l32.526-32.526c2.929-2.929 2.929-7.678 0-10.606l-5.303-5.303 2.198-2.198h132.2v207.49c0 4.142 3.358 7.5 7.5 7.5s7.5-3.358 7.5-7.5l0.083-312.99c-3e-3 -10.752-8.751-19.5-19.502-19.5zm-477.4 19.499c0-2.48 2.018-4.498 4.498-4.498h161.41v64.996h-165.91v-60.498zm0 90.497v-14.999h238.28c-1.781 2.269-2.066 5.323-0.862 7.848l-7.152 7.152h-230.27zm247.72 3.763 10.607 10.607-116.67 116.67-10.607-10.606 116.67-116.67zm-131.49 184.51 1.985-11.379 9.401 9.397-11.386 1.982zm29.454-5.129-24.323-24.311 3.993-22.888 43.214 43.214-22.884 3.985zm17.188-30.893-10.606-10.607 116.67-116.67 10.606 10.606-116.67 116.67zm152.02-102.53-60.102-60.102 21.915-21.915c4e-3 -5e-3 -1e-3 -1e-3 4e-3 -5e-3l60.102 60.101-21.919 21.921zm30.758-51.971-8.839 8.839-38.889-38.889 8.839-8.839c4.874-4.874 12.803-4.874 17.677 0l21.212 21.212c4.874 4.874 4.874 12.803 0 17.677zm136.16 2.247h-119.84c2.082-4.741 2.77-9.951 2.05-14.999h117.79v14.999zm0-29.998h-125.05c-0.168-0.177-0.332-0.358-0.505-0.532l-21.212-21.212c-5.194-5.194-12.099-8.055-19.444-8.055-7.346 0-14.25 2.86-19.444 8.055l-8.839 8.839-5.303-5.303c-2.929-2.929-7.678-2.929-10.606 0l-18.208 18.208h-72.293v-64.997h296.41c2.48-1e-3 4.498 2.018 4.498 4.498v60.499z" data-old_color="#000000" data-original="#000000"/>
		</g>
	

	
		<path class="active-path" d="m46.998 62.508c-12.406 0-22.499 10.093-22.499 22.499s10.093 22.499 22.499 22.499 22.499-10.093 22.499-22.499-10.092-22.499-22.499-22.499zm0 29.999c-4.136 0-7.5-3.364-7.5-7.5s3.364-7.5 7.5-7.5 7.5 3.364 7.5 7.5-3.364 7.5-7.5 7.5z" fill="#1DA1F2" data-old_color="#000000" data-original="#000000"/>
	

	
		<path class="active-path" d="m98.996 62.508c-12.406 0-22.499 10.093-22.499 22.499s10.093 22.499 22.499 22.499 22.499-10.093 22.499-22.499-10.093-22.499-22.499-22.499zm0 29.999c-4.136 0-7.5-3.364-7.5-7.5s3.364-7.5 7.5-7.5 7.5 3.364 7.5 7.5-3.364 7.5-7.5 7.5z" fill="#1DA1F2" data-old_color="#000000" data-original="#000000"/>
	

	
		<path class="active-path" d="m149.99 62.508c-12.406 0-22.499 10.093-22.499 22.499s10.093 22.499 22.499 22.499 22.499-10.093 22.499-22.499-10.093-22.499-22.499-22.499zm0 29.999c-4.136 0-7.5-3.364-7.5-7.5s3.364-7.5 7.5-7.5 7.5 3.364 7.5 7.5-3.364 7.5-7.5 7.5z" fill="#1DA1F2" data-old_color="#000000" data-original="#000000"/>
	

	
		<path class="active-path" d="m389.98 358.81h-267.99c-4.142 0-7.5 3.358-7.5 7.5s3.358 7.5 7.5 7.5h267.99c4.142 0 7.5-3.358 7.5-7.5s-3.358-7.5-7.5-7.5z" fill="#1DA1F2" data-old_color="#000000" data-original="#000000"/>
	

	
		<path class="active-path" d="m326.79 161.52-21.212-21.212c-2.929-2.929-7.678-2.929-10.606 0-2.929 2.929-2.929 7.678 0 10.606l21.212 21.212c1.464 1.464 3.384 2.197 5.303 2.197s3.839-0.732 5.303-2.197c2.928-2.929 2.928-7.678 0-10.606z" fill="#1DA1F2" data-old_color="#000000" data-original="#000000"/>
	
 </svg>

<?xml version="1.0"?>
<svg xmlns="http://www.w3.org/2000/svg" xmlns:xlink="http://www.w3.org/1999/xlink" version="1.1" id="Capa_1" x="0px" y="0px" viewBox="0 0 512.001 512.001" style="enable-background:new 0 0 512.001 512.001;" xml:space="preserve" width="46px" height="46px"><g><g>
	<g>
		<path d="M511.896,435.933v-33.439c0-4.142-3.358-7.5-7.5-7.5s-7.5,3.358-7.5,7.5v26.999H15.082V210.002c0-4.142-3.358-7.5-7.5-7.5    s-7.5,3.358-7.5,7.5L0,454.992c0,10.752,8.748,19.499,19.499,19.499h0.081h472.819h0.081c10.752,0,19.499-8.748,19.499-19.499    v-17.999C511.979,436.632,511.945,436.28,511.896,435.933z M496.896,454.994c0,2.48-2.018,4.498-4.498,4.498H19.58    c-2.48,0-4.498-2.018-4.498-4.498v-10.502h481.813V454.994z" data-original="#000000" class="active-path" data-old_color="#000000" fill="#1DA1F2"/>
	</g>
</g><g>
	<g>
		<g>
			<path d="M511.98,57.009C511.98,57.362,512.027,56.669,511.98,57.009L511.98,57.009z" data-original="#000000" class="active-path" data-old_color="#000000" fill="#1DA1F2"/>
			<path d="M492.481,37.509H492.4H19.58h-0.081C8.748,37.509,0,46.257,0,57.009l0.083,120.495c0,4.142,3.358,7.5,7.5,7.5     s7.5-3.358,7.5-7.5v-14.999h215.272L130.227,262.633c-0.081,0.081-0.152,0.169-0.229,0.252c-0.057,0.063-0.116,0.124-0.171,0.188     c-0.197,0.23-0.382,0.469-0.548,0.719c-0.014,0.021-0.025,0.043-0.038,0.064c-0.152,0.235-0.288,0.478-0.413,0.727     c-0.039,0.077-0.074,0.155-0.11,0.234c-0.104,0.226-0.196,0.457-0.277,0.693c-0.02,0.058-0.044,0.115-0.062,0.174     c-0.092,0.293-0.165,0.591-0.221,0.894c-0.004,0.023-0.013,0.045-0.017,0.068l-13.444,77.061     c-0.009,0.053-0.01,0.106-0.018,0.159c-0.014,0.097-0.026,0.194-0.035,0.274c-0.003,0.026-0.002,0.052-0.004,0.079     c-0.026,0.248-0.04,0.496-0.041,0.743c0,0.042,0.001,0.083,0.001,0.125c0.003,0.254,0.018,0.507,0.047,0.758     c0.004,0.034,0.009,0.068,0.013,0.102c0.033,0.257,0.077,0.51,0.136,0.761c0.006,0.028,0.014,0.055,0.021,0.082     c0.063,0.255,0.138,0.506,0.227,0.753c0.008,0.022,0.017,0.043,0.025,0.065c0.093,0.25,0.198,0.495,0.317,0.734     c0.009,0.017,0.018,0.034,0.027,0.051c0.123,0.241,0.257,0.476,0.406,0.704c0.009,0.013,0.019,0.026,0.028,0.04     c0.152,0.229,0.315,0.451,0.493,0.664c0.008,0.01,0.018,0.02,0.026,0.03c0.135,0.16,0.267,0.321,0.416,0.47     c1.419,1.419,3.332,2.197,5.304,2.197c0.428,0,0.858-0.037,1.287-0.111l77.13-13.436c0.308-0.055,0.612-0.131,0.912-0.225     c0.052-0.016,0.101-0.036,0.152-0.053c0.251-0.084,0.497-0.183,0.739-0.295c0.06-0.028,0.12-0.054,0.179-0.083     c0.543-0.268,1.06-0.605,1.538-1.013c0.068-0.058,0.133-0.12,0.199-0.18c0.083-0.076,0.169-0.145,0.249-0.225l26.366-26.366     c2.929-2.929,2.929-7.678,0-10.606c-2.929-2.929-7.678-2.929-10.606,0l-21.062,21.062l-10.607-10.607l116.668-116.668     l10.607,10.607l-72.148,72.148c-2.929,2.929-2.929,7.678,0,10.606c2.929,2.929,7.678,2.929,10.606,0l72.458-72.458     c0.999,0.477,2.098,0.739,3.226,0.739c1.989,0,3.897-0.79,5.303-2.197l32.526-32.526c2.929-2.929,2.929-7.678,0-10.606     l-5.303-5.303l2.198-2.198h132.197v207.492c0,4.142,3.358,7.5,7.5,7.5s7.5-3.358,7.5-7.5l0.083-312.987     C511.98,46.257,503.232,37.509,492.481,37.509z M15.082,57.008c0-2.48,2.018-4.498,4.498-4.498h161.412v64.996H15.082V57.008z      M15.082,147.505v-14.999h238.284c-1.781,2.269-2.066,5.323-0.862,7.848l-7.152,7.152H15.082z M262.803,151.268l10.607,10.607     L156.743,278.542l-10.607-10.606L262.803,151.268z M131.312,335.777l1.985-11.379l9.401,9.397L131.312,335.777z M160.766,330.648     l-24.323-24.311l3.993-22.888l43.214,43.214L160.766,330.648z M177.954,299.755l-10.606-10.607l116.668-116.667l10.606,10.606     L177.954,299.755z M329.976,197.229l-60.102-60.102l21.915-21.915c0.004-0.005-0.001-0.001,0.004-0.005l60.102,60.101     L329.976,197.229z M360.734,145.258l-8.839,8.839l-38.889-38.889l8.839-8.839c4.874-4.874,12.803-4.874,17.677,0l21.212,21.212     C365.608,132.455,365.608,140.384,360.734,145.258z M496.897,147.505H377.054c2.082-4.741,2.77-9.951,2.05-14.999h117.793     V147.505z M496.897,117.507H371.846c-0.168-0.177-0.332-0.358-0.505-0.532l-21.212-21.212     c-5.194-5.194-12.099-8.055-19.444-8.055c-7.346,0-14.25,2.86-19.444,8.055l-8.839,8.839l-5.303-5.303     c-2.929-2.929-7.678-2.929-10.606,0l-18.208,18.208h-72.293V52.51h296.407c2.48-0.001,4.498,2.018,4.498,4.498V117.507z" data-original="#000000" class="active-path" data-old_color="#000000" fill="#1DA1F2"/>
		</g>
	</g>
</g><g>
	<g>
		<path d="M46.998,62.508c-12.406,0-22.499,10.093-22.499,22.499s10.093,22.499,22.499,22.499s22.499-10.093,22.499-22.499    S59.405,62.508,46.998,62.508z M46.998,92.507c-4.136,0-7.5-3.364-7.5-7.5c0-4.136,3.364-7.5,7.5-7.5c4.136,0,7.5,3.364,7.5,7.5    C54.498,89.143,51.134,92.507,46.998,92.507z" data-original="#000000" class="active-path" data-old_color="#000000" fill="#1DA1F2"/>
	</g>
</g><g>
	<g>
		<path d="M98.996,62.508c-12.406,0-22.499,10.093-22.499,22.499s10.093,22.499,22.499,22.499c12.406,0,22.499-10.093,22.499-22.499    S111.402,62.508,98.996,62.508z M98.996,92.507c-4.136,0-7.5-3.364-7.5-7.5c0-4.136,3.364-7.5,7.5-7.5c4.136,0,7.5,3.364,7.5,7.5    C106.496,89.143,103.132,92.507,98.996,92.507z" data-original="#000000" class="active-path" data-old_color="#000000" fill="#1DA1F2"/>
	</g>
</g><g>
	<g>
		<path d="M149.994,62.508c-12.406,0-22.499,10.093-22.499,22.499s10.093,22.499,22.499,22.499s22.499-10.093,22.499-22.499    S162.4,62.508,149.994,62.508z M149.994,92.507c-4.136,0-7.5-3.364-7.5-7.5c0-4.136,3.364-7.5,7.5-7.5c4.136,0,7.5,3.364,7.5,7.5    C157.494,89.143,154.13,92.507,149.994,92.507z" data-original="#000000" class="active-path" data-old_color="#000000" fill="#1DA1F2"/>
	</g>
</g><g>
	<g>
		<path d="M389.984,358.81H121.995c-4.142,0-7.5,3.358-7.5,7.5c0,4.142,3.358,7.5,7.5,7.5h267.989c4.142,0,7.5-3.358,7.5-7.5    C397.484,362.168,394.126,358.81,389.984,358.81z" data-original="#000000" class="active-path" data-old_color="#000000" fill="#1DA1F2"/>
	</g>
</g><g>
	<g>
		<path d="M326.794,161.52l-21.212-21.212c-2.929-2.929-7.678-2.929-10.606,0c-2.929,2.929-2.929,7.678,0,10.606l21.212,21.212    c1.464,1.464,3.384,2.197,5.303,2.197s3.839-0.732,5.303-2.197C329.722,169.197,329.722,164.448,326.794,161.52z" data-original="#000000" class="active-path" data-old_color="#000000" fill="#1DA1F2"/>
	</g>
</g></g> </svg>
